48x48/apps/crayon-physics-deluxe.svg

<svg viewBox="0 0 48 48"><defs><linearGradient id="linearGradient3764" x1="1" x2="47" gradientUnits="userSpaceOnUse" gradientTransform="matrix(0,-1,1,0,-1.5e-6,47.999998)"><stop stop-color="#3b94d3" stop-opacity="1"/><stop offset="1" stop-color="#4b9ed7" stop-opacity="1"/></linearGradient><clipPath id="clipPath-718001849"><g transform="translate(0,-1004.3622)"><path d="m -24 13 c 0 1.105 -0.672 2 -1.5 2 -0.828 0 -1.5 -0.895 -1.5 -2 0 -1.105 0.672 -2 1.5 -2 0.828 0 1.5 0.895 1.5 2 z" transform="matrix(15.333333,0,0,11.5,414.99999,878.8622)" fill="#1890d0"/></g></clipPath><clipPath id="clipPath-729644319"><g transform="translate(0,-1004.3622)"><path d="m -24 13 c 0 1.105 -0.672 2 -1.5 2 -0.828 0 -1.5 -0.895 -1.5 -2 0 -1.105 0.672 -2 1.5 -2 0.828 0 1.5 0.895 1.5 2 z" transform="matrix(15.333333,0,0,11.5,414.99999,878.8622)" fill="#1890d0"/></g></clipPath></defs><g><path d="m 36.31 5 c 5.859 4.062 9.688 10.831 9.688 18.5 c 0 12.426 -10.07 22.5 -22.5 22.5 c -7.669 0 -14.438 -3.828 -18.5 -9.688 c 1.037 1.822 2.306 3.499 3.781 4.969 c 4.085 3.712 9.514 5.969 15.469 5.969 c 12.703 0 23 -10.298 23 -23 c 0 -5.954 -2.256 -11.384 -5.969 -15.469 c -1.469 -1.475 -3.147 -2.744 -4.969 -3.781 z m 4.969 3.781 c 3.854 4.113 6.219 9.637 6.219 15.719 c 0 12.703 -10.297 23 -23 23 c -6.081 0 -11.606 -2.364 -15.719 -6.219 c 4.16 4.144 9.883 6.719 16.219 6.719 c 12.703 0 23 -10.298 23 -23 c 0 -6.335 -2.575 -12.06 -6.719 -16.219 z" opacity="0.05"/><path d="m 41.28 8.781 c 3.712 4.085 5.969 9.514 5.969 15.469 c 0 12.703 -10.297 23 -23 23 c -5.954 0 -11.384 -2.256 -15.469 -5.969 c 4.113 3.854 9.637 6.219 15.719 6.219 c 12.703 0 23 -10.298 23 -23 c 0 -6.081 -2.364 -11.606 -6.219 -15.719 z" opacity="0.1"/><path d="m 31.25 2.375 c 8.615 3.154 14.75 11.417 14.75 21.13 c 0 12.426 -10.07 22.5 -22.5 22.5 c -9.708 0 -17.971 -6.135 -21.12 -14.75 a 23 23 0 0 0 44.875 -7 a 23 23 0 0 0 -16 -21.875 z" opacity="0.2"/></g><g><path d="m 24 1 c 12.703 0 23 10.297 23 23 c 0 12.703 -10.297 23 -23 23 -12.703 0 -23 -10.297 -23 -23 0 -12.703 10.297 -23 23 -23 z" fill="url(#linearGradient3764)" fill-opacity="1"/></g><g/><g><g clip-path="url(#clipPath-718001849)"><g transform="translate(1,1)"><g opacity="0.1"><!-- color: #4b9ed7 --><g><path d="m 6.773 3.387 c -0.01 0 -0.02 0.003 -0.03 0.008 c -0.031 0.001 -0.061 0.012 -0.088 0.029 c 0 0 -0.003 0.003 -0.004 0.006 c -0.08 0.033 -0.13 0.086 -0.169 0.133 c -0.057 0.069 -0.108 0.149 -0.159 0.239 c -0.108 0.183 -0.216 0.415 -0.323 0.645 c -0.11 0.234 -0.22 0.469 -0.31 0.648 c -0.044 0.088 -0.086 0.163 -0.118 0.217 c -0.007 0.013 -0.017 0.021 -0.024 0.032 c -0.011 0.003 -0.022 0.009 -0.039 0.011 c -0.056 0.013 -0.137 0.034 -0.233 0.052 c -0.192 0.033 -0.439 0.062 -0.68 0.099 c -0.247 0.04 -0.486 0.083 -0.686 0.129 c -0.097 0.021 -0.184 0.043 -0.262 0.075 c -0.042 0.021 -0.08 0.036 -0.122 0.067 c -0.041 0.031 -0.097 0.074 -0.127 0.172 c -0.031 0.101 -0.012 0.172 0.004 0.224 c 0.018 0.054 0.035 0.089 0.056 0.129 c 0.044 0.075 0.105 0.151 0.171 0.228 c 0.132 0.16 0.311 0.342 0.485 0.525 c 0.181 0.182 0.355 0.356 0.494 0.497 c 0.067 0.074 0.128 0.14 0.163 0.186 c 0.011 0.013 0.014 0.021 0.021 0.034 c 0 0.013 0 0.023 0 0.036 c -0.002 0.062 -0.011 0.147 -0.023 0.246 c -0.032 0.201 -0.076 0.458 -0.119 0.713 c -0.042 0.257 -0.08 0.514 -0.099 0.722 c -0.01 0.105 -0.018 0.195 -0.01 0.288 c 0.002 0.043 0.01 0.093 0.025 0.142 c 0.014 0.052 0.036 0.118 0.117 0.181 c 0.078 0.061 0.15 0.063 0.202 0.061 c 0.049 0 0.089 -0.007 0.131 -0.018 c 0.084 -0.021 0.164 -0.057 0.259 -0.099 c 0.185 -0.085 0.41 -0.197 0.631 -0.32 c 0.219 -0.12 0.434 -0.248 0.607 -0.342 c 0.086 -0.046 0.163 -0.082 0.216 -0.106 c 0.014 -0.007 0.024 -0.007 0.036 -0.009 c 0.012 0.002 0.022 0.002 0.035 0.009 c 0.054 0.023 0.131 0.06 0.217 0.106 c 0.173 0.094 0.388 0.218 0.61 0.342 c 0.219 0.119 0.443 0.235 0.628 0.32 c 0.095 0.042 0.175 0.077 0.259 0.099 c 0.042 0.011 0.083 0.018 0.131 0.018 c 0.052 0.003 0.121 0 0.203 -0.061 c 0.077 -0.064 0.099 -0.129 0.116 -0.181 c 0.018 -0.052 0.023 -0.099 0.025 -0.142 c 0.008 -0.09 0 -0.182 -0.01 -0.288 c -0.02 -0.211 -0.06 -0.465 -0.099 -0.722 c -0.042 -0.257 -0.087 -0.514 -0.118 -0.713 c -0.013 -0.1 -0.021 -0.184 -0.025 -0.246 c 0 -0.013 0 -0.023 0 -0.036 c 0.008 -0.013 0.011 -0.021 0.022 -0.034 c 0.035 -0.046 0.095 -0.112 0.163 -0.186 c 0.138 -0.141 0.314 -0.319 0.494 -0.497 c 0.175 -0.183 0.352 -0.365 0.486 -0.525 c 0.065 -0.077 0.125 -0.153 0.17 -0.228 c 0.021 -0.04 0.041 -0.075 0.056 -0.129 c 0.019 -0.052 0.035 -0.121 0.007 -0.224 c -0.031 -0.098 -0.086 -0.141 -0.128 -0.172 c -0.042 -0.031 -0.083 -0.049 -0.122 -0.067 c -0.077 -0.032 -0.164 -0.054 -0.265 -0.075 c -0.196 -0.046 -0.438 -0.089 -0.685 -0.129 c -0.245 -0.04 -0.492 -0.066 -0.68 -0.099 c -0.096 -0.019 -0.175 -0.036 -0.234 -0.052 c -0.014 -0.002 -0.028 -0.008 -0.04 -0.011 c -0.008 -0.011 -0.018 -0.019 -0.023 -0.032 c -0.032 -0.054 -0.074 -0.129 -0.118 -0.217 c -0.088 -0.181 -0.197 -0.417 -0.308 -0.648 c -0.11 -0.23 -0.217 -0.462 -0.323 -0.645 c -0.052 -0.09 -0.105 -0.17 -0.16 -0.239 c -0.054 -0.068 -0.095 -0.173 -0.29 -0.173 m 0.001 0" transform="matrix(3.543307,0,0,3.543307,0,0)" stroke-opacity="1" fill="#000" fill-rule="nonzero" stroke="#2d2d2d" stroke-linejoin="miter" fill-opacity="1" stroke-linecap="butt" stroke-width="0.564" stroke-miterlimit="4"/></g></g></g></g></g><g><g clip-path="url(#clipPath-729644319)"><!-- color: #4b9ed7 --><g><path d="m 6.773 3.387 c -0.01 0 -0.02 0.003 -0.03 0.008 c -0.031 0.001 -0.061 0.012 -0.088 0.029 c 0 0 -0.003 0.003 -0.004 0.006 c -0.08 0.033 -0.13 0.086 -0.169 0.133 c -0.057 0.069 -0.108 0.149 -0.159 0.239 c -0.108 0.183 -0.216 0.415 -0.323 0.645 c -0.11 0.234 -0.22 0.469 -0.31 0.648 c -0.044 0.088 -0.086 0.163 -0.118 0.217 c -0.007 0.013 -0.017 0.021 -0.024 0.032 c -0.011 0.003 -0.022 0.009 -0.039 0.011 c -0.056 0.013 -0.137 0.034 -0.233 0.052 c -0.192 0.033 -0.439 0.062 -0.68 0.099 c -0.247 0.04 -0.486 0.083 -0.686 0.129 c -0.097 0.021 -0.184 0.043 -0.262 0.075 c -0.042 0.021 -0.08 0.036 -0.122 0.067 c -0.041 0.031 -0.097 0.074 -0.127 0.172 c -0.031 0.101 -0.012 0.172 0.004 0.224 c 0.018 0.054 0.035 0.089 0.056 0.129 c 0.044 0.075 0.105 0.151 0.171 0.228 c 0.132 0.16 0.311 0.342 0.485 0.525 c 0.181 0.182 0.355 0.356 0.494 0.497 c 0.067 0.074 0.128 0.14 0.163 0.186 c 0.011 0.013 0.014 0.021 0.021 0.034 c 0 0.013 0 0.023 0 0.036 c -0.002 0.062 -0.011 0.147 -0.023 0.246 c -0.032 0.201 -0.076 0.458 -0.119 0.713 c -0.042 0.257 -0.08 0.514 -0.099 0.722 c -0.01 0.105 -0.018 0.195 -0.01 0.288 c 0.002 0.043 0.01 0.093 0.025 0.142 c 0.014 0.052 0.036 0.118 0.117 0.181 c 0.078 0.061 0.15 0.063 0.202 0.061 c 0.049 0 0.089 -0.007 0.131 -0.018 c 0.084 -0.021 0.164 -0.057 0.259 -0.099 c 0.185 -0.085 0.41 -0.197 0.631 -0.32 c 0.219 -0.12 0.434 -0.248 0.607 -0.342 c 0.086 -0.046 0.163 -0.082 0.216 -0.106 c 0.014 -0.007 0.024 -0.007 0.036 -0.009 c 0.012 0.002 0.022 0.002 0.035 0.009 c 0.054 0.023 0.131 0.06 0.217 0.106 c 0.173 0.094 0.388 0.218 0.61 0.342 c 0.219 0.119 0.443 0.235 0.628 0.32 c 0.095 0.042 0.175 0.077 0.259 0.099 c 0.042 0.011 0.083 0.018 0.131 0.018 c 0.052 0.003 0.121 0 0.203 -0.061 c 0.077 -0.064 0.099 -0.129 0.116 -0.181 c 0.018 -0.052 0.023 -0.099 0.025 -0.142 c 0.008 -0.09 0 -0.182 -0.01 -0.288 c -0.02 -0.211 -0.06 -0.465 -0.099 -0.722 c -0.042 -0.257 -0.087 -0.514 -0.118 -0.713 c -0.013 -0.1 -0.021 -0.184 -0.025 -0.246 c 0 -0.013 0 -0.023 0 -0.036 c 0.008 -0.013 0.011 -0.021 0.022 -0.034 c 0.035 -0.046 0.095 -0.112 0.163 -0.186 c 0.138 -0.141 0.314 -0.319 0.494 -0.497 c 0.175 -0.183 0.352 -0.365 0.486 -0.525 c 0.065 -0.077 0.125 -0.153 0.17 -0.228 c 0.021 -0.04 0.041 -0.075 0.056 -0.129 c 0.019 -0.052 0.035 -0.121 0.007 -0.224 c -0.031 -0.098 -0.086 -0.141 -0.128 -0.172 c -0.042 -0.031 -0.083 -0.049 -0.122 -0.067 c -0.077 -0.032 -0.164 -0.054 -0.265 -0.075 c -0.196 -0.046 -0.438 -0.089 -0.685 -0.129 c -0.245 -0.04 -0.492 -0.066 -0.68 -0.099 c -0.096 -0.019 -0.175 -0.036 -0.234 -0.052 c -0.014 -0.002 -0.028 -0.008 -0.04 -0.011 c -0.008 -0.011 -0.018 -0.019 -0.023 -0.032 c -0.032 -0.054 -0.074 -0.129 -0.118 -0.217 c -0.088 -0.181 -0.197 -0.417 -0.308 -0.648 c -0.11 -0.23 -0.217 -0.462 -0.323 -0.645 c -0.052 -0.09 -0.105 -0.17 -0.16 -0.239 c -0.054 -0.068 -0.095 -0.173 -0.29 -0.173 m 0.001 0" transform="matrix(3.543307,0,0,3.543307,0,0)" stroke-opacity="1" fill="#ffe32d" fill-rule="nonzero" stroke="#2d2d2d" stroke-linejoin="miter" fill-opacity="1" stroke-linecap="butt" stroke-width="0.564" stroke-miterlimit="4"/></g></g></g><g><path d="m 40.03 7.531 c 3.712 4.084 5.969 9.514 5.969 15.469 0 12.703 -10.297 23 -23 23 c -5.954 0 -11.384 -2.256 -15.469 -5.969 4.178 4.291 10.01 6.969 16.469 6.969 c 12.703 0 23 -10.298 23 -23 0 -6.462 -2.677 -12.291 -6.969 -16.469 z" opacity="0.1"/></g></svg>

<?xml version="1.0" encoding="UTF-8" standalone="no"?>
<svg
   xmlns:dc="http://purl.org/dc/elements/1.1/"
   xmlns:cc="http://creativecommons.org/ns#"
   xmlns:rdf="http://www.w3.org/1999/02/22-rdf-syntax-ns#"
   xmlns:svg="http://www.w3.org/2000/svg"
   xmlns="http://www.w3.org/2000/svg"
   xmlns:sodipodi="http://sodipodi.sourceforge.net/DTD/sodipodi-0.dtd"
   xmlns:inkscape="http://www.inkscape.org/namespaces/inkscape"
   viewBox="0 0 48 48"
   id="svg2"
   version="1.1"
   inkscape:version="0.48.4 r9939"
   width="100%"
   height="100%"
   sodipodi:docname="crayon-physics-deluxe.svg">
  <metadata
     id="metadata61">
    <rdf:RDF>
      <cc:Work
         rdf:about="">
        <dc:format>image/svg+xml</dc:format>
        <dc:type
           rdf:resource="http://purl.org/dc/dcmitype/StillImage" />
      </cc:Work>
    </rdf:RDF>
  </metadata>
  <sodipodi:namedview
     pagecolor="#ffffff"
     bordercolor="#666666"
     borderopacity="1"
     objecttolerance="10"
     gridtolerance="10"
     guidetolerance="10"
     inkscape:pageopacity="0"
     inkscape:pageshadow="2"
     inkscape:window-width="1440"
     inkscape:window-height="834"
     id="namedview59"
     showgrid="false"
     inkscape:zoom="4.9166667"
     inkscape:cx="-1.4237288"
     inkscape:cy="24"
     inkscape:window-x="0"
     inkscape:window-y="27"
     inkscape:window-maximized="1"
     inkscape:current-layer="svg2" />
  <defs
     id="defs4">
    <linearGradient
       id="linearGradient3764"
       x1="1"
       x2="47"
       gradientUnits="userSpaceOnUse"
       gradientTransform="matrix(0,-1,1,0,-1.5e-6,47.999998)">
      <stop
         stop-color="#3b94d3"
         stop-opacity="1"
         id="stop7" />
      <stop
         offset="1"
         stop-color="#4b9ed7"
         stop-opacity="1"
         id="stop9" />
    </linearGradient>
    <clipPath
       id="clipPath-718001849">
      <g
         transform="translate(0,-1004.3622)"
         id="g12">
        <path
           d="m -24 13 c 0 1.105 -0.672 2 -1.5 2 -0.828 0 -1.5 -0.895 -1.5 -2 0 -1.105 0.672 -2 1.5 -2 0.828 0 1.5 0.895 1.5 2 z"
           transform="matrix(15.333333,0,0,11.5,414.99999,878.8622)"
           fill="#1890d0"
           id="path14" />
      </g>
    </clipPath>
    <clipPath
       id="clipPath-729644319">
      <g
         transform="translate(0,-1004.3622)"
         id="g17">
        <path
           d="m -24 13 c 0 1.105 -0.672 2 -1.5 2 -0.828 0 -1.5 -0.895 -1.5 -2 0 -1.105 0.672 -2 1.5 -2 0.828 0 1.5 0.895 1.5 2 z"
           transform="matrix(15.333333,0,0,11.5,414.99999,878.8622)"
           fill="#1890d0"
           id="path19" />
      </g>
    </clipPath>
    <linearGradient
       id="linearGradient3764-6"
       x1="1"
       x2="47"
       gradientUnits="userSpaceOnUse"
       gradientTransform="matrix(0,-1,1,0,-1.5e-6,47.999998)">
      <stop
         stop-color="#b5945b"
         stop-opacity="1"
         id="stop7-5" />
      <stop
         offset="1"
         stop-color="#bb9e69"
         stop-opacity="1"
         id="stop9-1" />
    </linearGradient>
    <clipPath
       id="clipPath-899834956">
      <g
         transform="translate(0,-1004.3622)"
         id="g12-4">
        <path
           d="m -24 13 c 0 1.105 -0.672 2 -1.5 2 -0.828 0 -1.5 -0.895 -1.5 -2 0 -1.105 0.672 -2 1.5 -2 0.828 0 1.5 0.895 1.5 2 z"
           transform="matrix(15.333333,0,0,11.5,414.99999,878.8622)"
           fill="#1890d0"
           id="path14-1" />
      </g>
    </clipPath>
    <clipPath
       id="clipPath-909443126">
      <g
         transform="translate(0,-1004.3622)"
         id="g17-8">
        <path
           d="m -24 13 c 0 1.105 -0.672 2 -1.5 2 -0.828 0 -1.5 -0.895 -1.5 -2 0 -1.105 0.672 -2 1.5 -2 0.828 0 1.5 0.895 1.5 2 z"
           transform="matrix(15.333333,0,0,11.5,414.99999,878.8622)"
           fill="#1890d0"
           id="path19-9" />
      </g>
    </clipPath>
    <clipPath
       id="clipPath-909443126-7">
      <g
         transform="translate(0,-1004.3622)"
         id="g17-2">
        <path
           style="fill:#1890d0"
           inkscape:connector-curvature="0"
           d="m -24,13 c 0,1.105 -0.672,2 -1.5,2 -0.828,0 -1.5,-0.895 -1.5,-2 0,-1.105 0.672,-2 1.5,-2 0.828,0 1.5,0.895 1.5,2 z"
           transform="matrix(15.333333,0,0,11.5,414.99999,878.8622)"
           id="path19-3" />
      </g>
    </clipPath>
    <linearGradient
       id="linearGradient3759">
      <stop
         id="stop3761"
         offset="0"
         style="stop-color:#a75e15;stop-opacity:1;" />
      <stop
         id="stop3763"
         offset="1"
         style="stop-color:#ffffff;stop-opacity:0;" />
    </linearGradient>
    <linearGradient
       id="linearGradient3777">
      <stop
         id="stop3779"
         offset="0"
         style="stop-color:#e0dd00;stop-opacity:1;" />
      <stop
         id="stop3781"
         offset="1"
         style="stop-color:#000000;stop-opacity:0;" />
    </linearGradient>
    <clipPath
       id="clipPath-729644319-4">
      <g
         transform="translate(0,-1004.3622)"
         id="g17-3">
        <path
           style="fill:#1890d0"
           inkscape:connector-curvature="0"
           d="m -24,13 c 0,1.105 -0.672,2 -1.5,2 -0.828,0 -1.5,-0.895 -1.5,-2 0,-1.105 0.672,-2 1.5,-2 0.828,0 1.5,0.895 1.5,2 z"
           transform="matrix(15.333333,0,0,11.5,414.99999,878.8622)"
           id="path19-31" />
      </g>
    </clipPath>
  </defs>
  <g
     id="g33" />
  <g
     id="g3085">
    <g
       inkscape:label="shadows"
       id="layer2">
      <rect
         ry="13.03658"
         rx="13.03658"
         y="1"
         x="1"
         height="46"
         width="46"
         id="rect3007"
         style="opacity:0.1;fill:#000000;fill-opacity:1;fill-rule:nonzero;stroke:none" />
      <rect
         style="opacity:0.1;fill:#000000;fill-opacity:1;fill-rule:nonzero;stroke:none"
         id="rect3011"
         width="47"
         height="47"
         x="0.5"
         y="0.5"
         rx="13.319984"
         ry="13.319984" />
      <rect
         style="opacity:0.1;fill:#000000;fill-opacity:1;fill-rule:nonzero;stroke:none"
         id="rect3013"
         width="46.5"
         height="46.5"
         x="0.75"
         y="0.75"
         rx="13.178282"
         ry="13.178282" />
    </g>
    <g
       style="display:inline"
       inkscape:label="background-color"
       id="layer1">
      <rect
         transform="matrix(0,-1,1,0,0,0)"
         ry="12.753176"
         rx="12.753176"
         y="1.5"
         x="-46.5"
         height="45"
         width="45"
         id="rect2988"
         style="fill:#3b94d3;fill-opacity:1;fill-rule:nonzero;stroke:none" />
    </g>
  </g>
  <g
     transform="translate(0.0232989,-0.00372499)"
     id="g47-9">
    <g
       clip-path="url(#clipPath-729644319-4)"
       id="g49-3">
      <!-- color: #4b9ed7 -->
      <g
         id="g51-1">
        <path
           style="fill:#ffe32d;fill-opacity:1;fill-rule:nonzero;stroke:#2d2d2d;stroke-width:0.56400001;stroke-linecap:butt;stroke-linejoin:miter;stroke-miterlimit:4;stroke-opacity:1"
           inkscape:connector-curvature="0"
           d="m 6.773,3.387 c -0.01,0 -0.02,0.003 -0.03,0.008 -0.031,10e-4 -0.061,0.012 -0.088,0.029 0,0 -0.003,0.003 -0.004,0.006 C 6.571,3.463 6.521,3.516 6.482,3.563 6.425,3.632 6.374,3.712 6.323,3.802 6.215,3.985 6.107,4.217 6,4.447 5.89,4.681 5.78,4.916 5.69,5.095 5.646,5.183 5.604,5.258 5.572,5.312 5.565,5.325 5.555,5.333 5.548,5.344 5.537,5.347 5.526,5.353 5.509,5.355 5.453,5.368 5.372,5.389 5.276,5.407 5.084,5.44 4.837,5.469 4.596,5.506 4.349,5.546 4.11,5.589 3.91,5.635 3.813,5.656 3.726,5.678 3.648,5.71 3.606,5.731 3.568,5.746 3.526,5.777 3.485,5.808 3.429,5.851 3.399,5.949 3.368,6.05 3.387,6.121 3.403,6.173 3.421,6.227 3.438,6.262 3.459,6.302 3.503,6.377 3.564,6.453 3.63,6.53 3.762,6.69 3.941,6.872 4.115,7.055 4.296,7.237 4.47,7.411 4.609,7.552 c 0.067,0.074 0.128,0.14 0.163,0.186 0.011,0.013 0.014,0.021 0.021,0.034 0,0.013 0,0.023 0,0.036 C 4.791,7.87 4.782,7.955 4.77,8.054 4.738,8.255 4.694,8.512 4.651,8.767 4.609,9.024 4.571,9.281 4.552,9.489 4.542,9.594 4.534,9.684 4.542,9.777 4.544,9.82 4.552,9.87 4.567,9.919 c 0.014,0.052 0.036,0.118 0.117,0.181 0.078,0.061 0.15,0.063 0.202,0.061 0.049,0 0.089,-0.007 0.131,-0.018 C 5.101,10.122 5.181,10.086 5.276,10.044 5.461,9.959 5.686,9.847 5.907,9.724 6.126,9.604 6.341,9.476 6.514,9.382 6.6,9.336 6.677,9.3 6.73,9.276 6.744,9.269 6.754,9.269 6.766,9.267 c 0.012,0.002 0.022,0.002 0.035,0.009 0.054,0.023 0.131,0.06 0.217,0.106 0.173,0.094 0.388,0.218 0.61,0.342 0.219,0.119 0.443,0.235 0.628,0.32 0.095,0.042 0.175,0.077 0.259,0.099 0.042,0.011 0.083,0.018 0.131,0.018 0.052,0.003 0.121,0 0.203,-0.061 C 8.926,10.036 8.948,9.971 8.965,9.919 8.983,9.867 8.988,9.82 8.99,9.777 8.998,9.687 8.99,9.595 8.98,9.489 8.96,9.278 8.92,9.024 8.881,8.767 8.839,8.51 8.794,8.253 8.763,8.054 8.75,7.954 8.742,7.87 8.738,7.808 c 0,-0.013 0,-0.023 0,-0.036 C 8.746,7.759 8.749,7.751 8.76,7.738 8.795,7.692 8.855,7.626 8.923,7.552 9.061,7.411 9.237,7.233 9.417,7.055 9.592,6.872 9.769,6.69 9.903,6.53 9.968,6.453 10.028,6.377 10.073,6.302 10.094,6.262 10.114,6.227 10.129,6.173 10.148,6.121 10.164,6.052 10.136,5.949 10.105,5.851 10.05,5.808 10.008,5.777 9.966,5.746 9.925,5.728 9.886,5.71 9.809,5.678 9.722,5.656 9.621,5.635 9.425,5.589 9.183,5.546 8.936,5.506 8.691,5.466 8.444,5.44 8.256,5.407 8.16,5.388 8.081,5.371 8.022,5.355 8.008,5.353 7.994,5.347 7.982,5.344 7.974,5.333 7.964,5.325 7.959,5.312 7.927,5.258 7.885,5.183 7.841,5.095 7.753,4.914 7.644,4.678 7.533,4.447 7.423,4.217 7.316,3.985 7.21,3.802 7.158,3.712 7.105,3.632 7.05,3.563 6.996,3.495 6.955,3.39 6.76,3.39 m 0.001,0"
           transform="scale(3.543307,3.543307)"
           stroke-miterlimit="4"
           id="path53-8" />
      </g>
    </g>
  </g>
</svg>
